X:145
M:4/4
L:1/4
K:F
D E F G | A2 (A G) | A2 A2 | A A B c | B2 (A G) | A4 | D E F G | A2 (A G) | A2 A2 | A A B c | B2 (A G) | A4 | A A d A | G3 F | (D F A F) | E4 | !sintro!A A d A | G2 (E F) | D4 !eintro!|]
